X:193
T:Double Top
C:Charles Bolton, 1989
L:1/8
M:6/8
S:Colin Hume's website,  colinhume.com  - chords can also be printed below the stave.
Q:3/8=110
H:For the 40th anniversary dance of the Heswall and West Kirby Folk Dance Group, 1989.
K:Gm
P:A
D |: "Gm"G2B "/"d2G | "Cm"e2c "Gm"dBG | "Cm"edc "Gm"d2g | "D"a3 "D7"g2a |
"Eb"b2b "F"a2g | "Bb"fdB "Eb"g2"Bb"f |1 "Cm"edc "D7"BcA | "Gm"G3- "/"G2D :|2 "Eb"edc "F7"BcA | "Bb"B3- "/"B2d/e/ |
P:B
|: "Bb"f2f "Gm"Bcd | "Cm"e2d "F"cde | "Bb"f2B "Eb"bag | "Bb"f3 "F"d2e |\
"Dm"f=ef "Gm"Bcd | "Cm"efd "F"cde | "Bb"d=ef "C7"efg | "F"f3- "/"f2e |
"Ab"_a2b "/"c'ba | "Eb"g2f "/"e3 | "Db"f2g "/"_agf | "Cm"e2_d "F7"c3 |
"Bb"B2c "Gm"dBG | "F7"ecA "Bb"fdB |1 "Cm"gfe "F7"dec | "Bb"B3- "/"B2d/e/ :|2 "Cm"edc "D7"BcA | "Gm"G3- "/"G2D |]

